X:4792
L:1/8
Q:3/8=120
M:6/8
K:Bb
 B2 d | fdB bge | f3 B2 d | fdB ecA | B2 F B2 d | fdB bge | f3 B2 d | fdB ecA | B3 :: F2 A | 
 cAF ecA | d2 F B2 d | fgf fed | c2 F A2 B | cAF dBG | e3 d2 g | fdB ecA | B3 :|

